X:1
T:B  Major James P. Carrell, 1821
T:Charles Wesley, 1742 The 52nd Chapter of Isaiah          88. 88. (L. M.)
T:Hermon
T:Transcribed from Songs of Zion, 1821
%%score [ 1 2 3 4 ]
L:1/8
Q:1/4=90
M:4/4
K:Bb
V:1 treble nm="Tr." snm="Tr."
V:2 treble nm="C." snm="C."
V:3 treble-8 nm="T." snm="T."
V:4 bass nm="B." snm="B."
V:1
"^1. A – wake,  Jer –u – sa  – lem,  a–wake,  No  lon–ger  in   thy   sins  lie   down,         The  garment  of  sal –" B2 | %1
 df dB c2 B2 | ed c2 B2 B2 | A2 A2 B2 B2 | c2 c2 F4- | F4 z2 BA | GF G2 ed cB | %7
"^1. –va–tion take,  Thy  beau  –  ty        and  thy strength put on." B2 B2 A2 A2 | %8
 B2 Bc/d/ f2 (3edc | B2 A2 B4- | B4 |] %11
V:2
"^2. Shake off the dust that blinds thy sight,  And hides the promise from thine eyes,  A –  rise,  and  struggle" F2 | %1
 D2 D2 F2 EF | G2 F2 F2 GE | F2 E2 D2 D2 | F2 F2 F4- | F4 z2 F2 | D2 D2 E2 E2 | %7
"^2. in – to  light,  Thy    great    de    –   li   –  verer  calls,  A – rise!" E2 DE F2 F2 | %8
 F2 D2 D2 F2 | G2 F2 F4- | F4 |] %11
V:3
"^3. Shake  off  the  bands  of sad des – pair,  Zi  –  on,  assert  thy   li – ber – ty,         Look up,  thy  bro–ken" B2 | %1
 d2 (3Bcd cB G2 | B2 c>B B2 G2 | F2 ec d2 (3dcB | c2 cd f4- | f4 z2 Bc | d2 d2 B2 G2 | %7
"^3. heart prepare,  And  God     shall    set   the       captive  free." e2 d2 c2 cd | %8
 fd/c/ dc/B/ B2 c2 | d2 c2 B4- | B4 |] %11
V:4
"^5. The  Lord  shall  in  your front  appear,    And lead the pompous triumph on;       His   glory  shall bring""^4. Ves–sels   of    mer–cy,   sons  of  grace,   Be  purged  from every sinful  stain,      Be  like your Lord; his" B,2 | %1
 B,2 G,2 F,2 B,2 | E,2 F,2 B,,2 B,,2 | D,2 E,2 D,2 B,2 | F,2 C,2 F,4- | F,4 z2 F,2 | %6
 D,2 D,2 E,2 B,,2 | %7
"^4. word embrace, Nor bear     his      hallowed      name  in  vain.""^5. up  the  rear,    And  per  –  fect     what   his    grace  be – gan." E,2 G,2"^_____________________________________________\nEdited by B. C. Johnston, 2017\n   1. A tied half-note added to measure 6, in place of a half-rest.\n   2. A tied half-note added to the end." F,2 F,2 | %8
 D,2 F,2 B,2 A,2 | B,2 F,2 B,,4- | B,,4 |] %11

